X:1870
T:Bourrée - A demain (F. Paris)
C:F. Paris
M:3/8
L:1/16
K:C
G2Gced|c2B2A2|G2Gced|c2B2A2|\
G2Gced|f2d2Bd|c2cdef|gagfed|
G2Gced|c2B2A2|G2Gced|c2B2A2|\
G2Gced|f2d2Bd|c2cdcB|c6:|
|:A2AcAc|B2GBdB|cde2dc|d2BdGB|\
A2AcAc|B2GBdB|cddedc|d6:|


